www/assets/icons/keyboard_capslock.svg

<svg width="24" height="24" viewBox="0 0 24 24" xmlns="http://www.w3.org/2000/svg" fill='currentColor'><path d="M12 8.61492L16.59 13.2049L18 11.7949L12 5.79492L6 11.7949L7.41 13.2049L12 8.61492ZM6 18.2049H18V16.2049H6V18.2049Z"/></svg>

<svg xmlns="http://www.w3.org/2000/svg" width="24" height="24" viewBox="0 0 24 24" fill='currentColor'><path d="m12 8.615 4.59 4.59 1.41-1.41-6-6-6 6 1.41 1.41zm-6 9.59h12v-2H6z"/></svg>
